src/components/00-materials/images-raw/Help (Woman).svg

<svg width="96" height="96" viewBox="0 0 96 96" fill="none" xmlns="http://www.w3.org/2000/svg">
<path d="M32 54L23.1 55.53C16.72 56.46 12 61.62 12 67.69V73.17C12.0204 74.0862 12.3637 74.9658 12.9692 75.6537C13.5748 76.3416 14.4038 76.7936 15.31 76.93L26.17 78.93C34.3243 80.4 42.6757 80.4 50.83 78.93L61.69 76.93C62.5962 76.7936 63.4252 76.3416 64.0308 75.6537C64.6363 74.9658 64.9796 74.0862 65 73.17V66.17M32 49V54V49ZM45 49V54V49ZM23 73V78.32V73ZM54 73V78.32V73ZM45 54L53.9 55.53L54.75 55.83L45 54Z" stroke="#00008F" stroke-width="2" stroke-linecap="round" stroke-linejoin="round"/>
<path d="M70 34.9998C67.2055 34.9926 64.4578 35.7174 62.0305 37.1022C59.6031 38.4869 57.5808 40.4833 56.1648 42.8925C54.7488 45.3017 53.9885 48.0398 53.9596 50.8342C53.9307 53.6286 54.6341 56.3818 56 58.8198L54 66.9998L62.18 64.9998C64.3139 66.1804 66.6895 66.8576 69.1251 66.9796C71.5608 67.1016 73.9921 66.6652 76.2334 65.7038C78.4746 64.7424 80.4664 63.2813 82.0565 61.4324C83.6467 59.5834 84.7931 57.3953 85.4083 55.0354C86.0234 52.6756 86.091 50.2063 85.6058 47.8163C85.1206 45.4264 84.0955 43.1789 82.6088 41.2457C81.1221 39.3126 79.2131 37.7448 77.0278 36.6623C74.8425 35.5798 72.4387 35.0111 70 34.9998V34.9998Z" stroke="#00008F" stroke-width="2" stroke-linecap="round" stroke-linejoin="round"/>
<path d="M66 47C66 45.9391 66.4214 44.9217 67.1716 44.1716C67.9217 43.4214 68.9391 43 70 43C71.0609 43 72.0783 43.4214 72.8284 44.1716C73.5786 44.9217 74 45.9391 74 47C74 49.21 71.56 50.44 70 52V55M70 60V59M28.46 54.61L36.14 64.7C36.4036 65.0984 36.7615 65.4256 37.1819 65.6524C37.6023 65.8792 38.0723 65.9986 38.55 66C39.0001 65.9992 39.4438 65.8941 39.8464 65.6928C40.249 65.4915 40.5993 65.1996 40.87 64.84L48.5 54.6M43.27 29H34.68C32.3107 29.0325 29.9973 29.7251 28 31V39C28 45.64 31.82 51 38.5 51C45.18 51 49 45.71 49 39.07V26C49 26 46.14 29 43.27 29Z" stroke="#00008F" stroke-width="2" stroke-linecap="round" stroke-linejoin="round"/>
<path d="M26 54.9999L24.41 54.7399C23.0444 54.5086 21.7525 53.959 20.6389 53.1355C19.5253 52.312 18.6212 51.2378 18 49.9999C19.231 49.2965 20.2512 48.2763 20.9546 47.0454C21.658 45.8144 22.0189 44.4176 22 42.9999V28.3099C21.9974 26.4333 22.3644 24.5746 23.0801 22.8398C23.7958 21.1051 24.8462 19.5283 26.1713 18.1995C27.4964 16.8707 29.0702 15.8159 30.803 15.0953C32.5357 14.3748 34.3934 14.0025 36.27 13.9999H37.46C39.9815 13.9592 42.469 14.5851 44.671 15.8143C46.8729 17.0434 48.7112 18.8323 50 20.9999C50.6677 20.9574 51.3367 21.0575 51.9626 21.2938C52.5885 21.53 53.1569 21.8968 53.63 22.3699C54.1031 22.843 54.4699 23.4114 54.7061 24.0373C54.9424 24.6632 55.0425 25.3323 55 25.9999V42.9999C54.9994 43.6391 55.0699 44.2763 55.21 44.8999" stroke="#00008F" stroke-width="2" stroke-linecap="round" stroke-linejoin="round"/>
</svg>

<svg width="96" height="96" viewBox="0 0 96 96" fill="none" xmlns="http://www.w3.org/2000/svg"><path d="M32 54l-8.9 1.53c-6.38.93-11.1 6.09-11.1 12.16v5.48a3.89 3.89 0 003.31 3.76l10.86 2a69.499 69.499 0 0024.66 0l10.86-2A3.89 3.89 0 0065 73.17v-7M32 49v5-5zm13 0v5-5zM23 73v5.32V73zm31 0v5.32V73zm-9-19l8.9 1.53.85.3L45 54z" stroke="#00008F" stroke-width="2" stroke-linecap="round" stroke-linejoin="round"/><path d="M70 35a16 16 0 00-14 23.82L54 67l8.18-2A16 16 0 1070 35v0z" stroke="#00008F" stroke-width="2" stroke-linecap="round" stroke-linejoin="round"/><path d="M66 47a4 4 0 118 0c0 2.21-2.44 3.44-4 5v3m0 5v-1m-41.54-4.39l7.68 10.09a2.901 2.901 0 002.41 1.3 2.91 2.91 0 002.32-1.16L48.5 54.6M43.27 29h-8.59A12.74 12.74 0 0028 31v8c0 6.64 3.82 12 10.5 12S49 45.71 49 39.07V26s-2.86 3-5.73 3z" stroke="#00008F" stroke-width="2" stroke-linecap="round" stroke-linejoin="round"/><path d="M26 55l-1.59-.26A8.82 8.82 0 0118 50a7.94 7.94 0 004-7V28.31A14.291 14.291 0 0136.27 14h1.19A14.32 14.32 0 0150 21a4.71 4.71 0 015 5v17c0 .64.07 1.276.21 1.9" stroke="#00008F" stroke-width="2" stroke-linecap="round" stroke-linejoin="round"/></svg>
